X:1
T:Der Lindenbaum
T:Carl Loewe
T:W. A. Häring
T:Der Lindenbaum
T:CPDL   —   Creative Commons Attribution Non Commercial 3.0
T:CPDL   —   Creative Commons Attribution Non Commercial 3.0
C:Carl Loewe
Z:W. A. Häring
Z:CPDL   —   Creative Commons Attribution Non Commercial 3.0
%%score [ ( 1 2 3 4 ) ( 5 6 ) ( 7 8 ) ]
L:1/8
Q:1/4=66
M:6/8
K:Ab
V:1 treble nm="Sopran\nAlt"
V:2 treble 
V:3 treble 
V:4 treble 
V:5 treble-8 nm="Tenor"
V:6 treble-8 
V:7 bass nm="Bass"
V:8 bass 
V:1
"^Andantino"!p!!p! E | c/B/A/G/ A/F/ E2 E | c/B/A/G/ A/F/ E2 E/A/ | c>B c/B/ c>B c/B/ | %4
w: 1. O|Lin- * * * den- * blü- te|sü- * * * ßer * Duft, wann *|um _ dich * sum- * men *|
w: 2. Die|Vö- * * * gel * * im|Lin- * * * den- * laub, es *|schwel- * gen * drin _ die *|
 (e>c A/F/) E2 E | c/B/A/G/ A/F/ E2 E/A/ | c/B/A/G/ A/F/ E2 E/A/ | c>B c/B/ c>B c/B/ | %8
w: Bie- * * * nen; dein|Wip- * * * fel * rauscht von *|Mai- * * * en- * luft, o _|Lin- * den- * baum _ im *|
w: Win- * * * de; die|Lie- * * * ben- * den sind *|blind _ _ _ und * taub zu *|Fuß _ der * grü- * nen *|
 (e>c A/F/) E2 | c | c>B c/B/ Be G/c/ | c>B c/B/ Be G/c/ | B/e/g/f/ e/=d/ c/B/A/G/ F/B/ | %13
w: Grü- * * * nen!|O|Lin- * den- * baum _ im *|tie- * fen * Tal, _ wie *|wogt's _ _ _ in * dir _ _ _ so *|
w: Lin- * * * de.|O|Baum _ der * Lie- * be, *|Lin- * den- * baum, _ was *|welkt _ _ _ dein * Laub _ _ _ ge- *|
 BE z z2 E | c/B/A/G/ A/F/ E2 E | c/B/A/G/ A/F/ E2 (3c/B/A/ | Adc BAG | (G2 B/A/) A2 |] %18
w: luf- tig! sahst|Lie- * * * bes- * freu- den,|Lie- * * * bes- * qual, o _ _|Lin- * de grün _ und|duf- * * tig.|
w: schwin- de! Glück,|Le- * * * ben, * Lie- be,|nur _ _ _ ein * Traum, ein _ _|Luft- * hauch in _ der|Lin- * * de.|
V:2
 C | C2 C C2 C | C2 C C2 C | D>E D/E/ D>E D/E/ | C3 C2 C | C2 D C2 C | C2 D C2 C | %7
 C>D C/D/ C>D C/D/ | (C2 D) C2 | E | =D2 D E2 E | =D2 D E2 E | E2 E =D2 D | EE x x2 E | C2 D C2 C | %15
 C2 D C2 C | DAG FED | (D2- D/C/) C2 |] %18
V:3
 x | x3 EE x | x6 | x6 | x6 | x6 | x6 | x6 | x5 | x | x6 | x6 | x6 | x6 | x6 | x6 | x6 | x5 |] %18
V:4
 x | x3 CC x | x6 | x6 | x6 | x6 | x6 | x6 | x5 | x | x6 | x6 | x6 | x6 | x6 | x6 | x6 | x5 |] %18
w: ||||||||||||||||||
w: |schnä- beln|||||||||||||||||
V:5
!p! E | E2 E E2 E | E2 E E2 E | G2 G G2 G | E3 E>c A/F/ | E>=E F/G/ A2 A | E>=E F/G/ A2 A | %7
w: 1. O|Lin- den- blü- te|sü- ßer Duft, wann|um dich sum- men|Bie- nen; _ dein *|Wip- * fel * rauscht von|Mai- * en- * luft, o|
w: 2. Die|Vö- gel * im|Lin- den- laub, es|schwel- gen drin die|Win- de; _ die *|Lie- * ben- * den sind|blind _ und * taub zu|
 G2 G G2 G | (E2 F/G/) A>E | A/G/ | F2 A G2 B/A/ | A2 A G2 B/A/ | G2 G A2 A | GG F/B/ BEE | %14
w: Lin- den- baum im|Grü- * * nen! _|O *|Lin- den- baum im *|tie- fen Tal, wie *|wogt's in dir so|luf- tig! so * luf- tig! sahst|
w: Fuß der grü- nen|Lin- * * de. _|O *|Baum der Lie- be, *|Lin- den- baum, was *|welkt dein Laub ge-|schwin- de! ge- * schwin- de! Glück,|
 E>=E F/G/ A2 A | E>=E F/G/ A2 A | Afe dcB | (B2 G/A/) A2 |] %18
w: Lie- * bes- * freu- den,|Lie- * bes- * qual, o|Lin- * de grün _ und|duf- * * tig.|
w: Le- * ben, * Lie- be,|nur _ ein * Traum, ein|Luft- * hauch in _ der|Lin- * * de.|
V:6
 x | x3 EE x | x6 | x6 | x6 | x6 | x6 | x6 | x5 | x | x6 | x6 | x6 | x6 | x6 | x6 | x6 | x5 |] %18
w: ||||||||||||||||||
w: |schnä- beln|||||||||||||||||
V:7
!p! A,, | A,,2 A,, A,,2 A,, | A,,2 A,, A,,2 A,, | E,2 E, E,2 E, | A,,3 A,,2 A,, | %5
 A,,2 A,, A,,/C,/E,/A,/ E,/C,/ | A,,2 A,, A,,/C,/E,/A,/ E,/C,/ | E,2 E, E,2 E, | A,,3 A,,2 | A,, | %10
 B,,2 B,, E,2 E, | F,2 B,, E,2 E, | B,,2 B,, B,,2 B,, | E,E, z z2 E, | %14
 A,,2 A,, A,,/C,/E,/A,/ E,/C,/ | A,,2 A,, A,,/C,/E,/A,/_G, | F,D,D, D,E,E, | E,3 A,,2 |] %18
V:8
 x | x3 A,,A,, x | x6 | x6 | x6 | x6 | x6 | x6 | x5 | x | x6 | x6 | x6 | x6 | x6 | x6 | x6 | x5 |] %18

